public/logo.svg

<svg xmlns="http://www.w3.org/2000/svg" viewBox="0 0 100 100" fill="currentColor">
    <path d="M78.4,66.5c-5.5,4.8-9.9,15.2-9.9,15.2s-6.9-11.4-12.9-15.3c-9.5-6.1-13.6-6.2-13.6-6.2V65c0,0,7.8,1.2,11.7,4.6c8.2,7.1,14.8,18.5,14.8,18.5S74.4,75,80.1,70.5C88.1,64.3,95,65,95,65v-4.8C95,60.1,85.1,60.7,78.4,66.5z" stroke="currentColor" stroke-width="3"></path>
    <path d="M42,80c-6.4-3.6-17.8-4.3-17.8-4.3s8.7-10.1,10.5-17C37.5,47.9,36.2,44,36.2,44l-4.6,1.6c0,0,1.3,7.7-0.6,12.4c-4.1,9.9-13,19.8-13,19.8s14.6,1.3,20.7,5.1c8.6,5.4,10.2,12,10.2,12l4.6-1.6C53.5,93.4,49.7,84.4,42,80z" stroke="currentColor" stroke-width="3"></path>
    <path d="M35.3,36.8c11.3-0.9,14.6-3.4,14.6-3.4l-3-3.8c0,0-6.9,3.7-12.1,3.4c-10.9-0.6-23.3-5.6-23.3-5.6s3.5,14,1.8,20.9C10.9,58.2,5,61.8,5,61.8l3,3.8c0,0,7.5-6.5,9.1-15.1c1.3-7.1-1.7-18-1.7-18S28,37.4,35.3,36.8z" stroke="currentColor" stroke-width="3"></path>
    <path d="M37.4,17.8c7.3-1.1,16.7-7.4,16.7-7.4s-0.6,13.2,2.4,19.8c4.6,10.2,8,12.5,8,12.5l2.7-4c0,0-5.9-5.2-7.3-10.2C56.9,18.2,57.7,5,57.7,5s-12.3,7.8-19.5,8.5c-10.2,1-15.6-3.3-15.6-3.3l-2.7,4.1C19.9,14.2,28.6,19.1,37.4,17.8z" stroke="currentColor" stroke-width="3"></path>
    <path d="M65,60.5c0,0,3.1-7.2,7.4-10.1c9-6.1,21.9-9.7,21.9-9.7s-11.5-8.9-14.5-15.4c-4.2-9.1-1.9-15.6-1.9-15.6l-4.8-1.2c0,0-1.9,9.6,2.2,17.4c3.4,6.4,12.5,13.2,12.5,13.2S75,42.9,69.6,47.8c-8.3,7.6-9.4,11.5-9.4,11.5L65,60.5z" stroke="currentColor" stroke-width="3"></path>
</svg>

<svg width="100" height="100" viewBox="0 0 100 100" fill="none" xmlns="http://www.w3.org/2000/svg">
<path d="M78.4 66.5C72.9 71.3 68.5 81.7 68.5 81.7C68.5 81.7 61.6 70.3 55.6 66.4C46.1 60.3 42 60.2 42 60.2V65C42 65 49.8 66.2 53.7 69.6C61.9 76.7 68.5 88.1 68.5 88.1C68.5 88.1 74.4 75 80.1 70.5C88.1 64.3 95 65 95 65V60.2C95 60.1 85.1 60.7 78.4 66.5Z" fill="black" stroke="black" stroke-width="3"/>
<path d="M42 80C35.6 76.4 24.2 75.7 24.2 75.7C24.2 75.7 32.9 65.6 34.7 58.7C37.5 47.9 36.2 44 36.2 44L31.6 45.6C31.6 45.6 32.9 53.3 31 58C26.9 67.9 18 77.8 18 77.8C18 77.8 32.6 79.1 38.7 82.9C47.3 88.3 48.9 94.9 48.9 94.9L53.5 93.3C54 93.3 49.7 84.4 42 80Z" fill="black" stroke="black" stroke-width="3"/>
<path d="M35.3 36.8C46.6 35.9 49.9 33.4 49.9 33.4L46.9 29.6C46.9 29.6 40 33.3 34.8 33C23.9 32.4 11.5 27.4 11.5 27.4C11.5 27.4 15 41.4 13.3 48.3C10.9 58.2 5 61.8 5 61.8L8 65.6C8 65.6 15.5 59.1 17.1 50.5C18.4 43.4 15.4 32.5 15.4 32.5C15.4 32.5 28 37.4 35.3 36.8Z" fill="black" stroke="black" stroke-width="3"/>
<path d="M37.4 17.8C44.7 16.7 54.1 10.4 54.1 10.4C54.1 10.4 53.5 23.6 56.5 30.2C61.1 40.4 64.5 42.7 64.5 42.7L67.2 38.7C67.2 38.7 61.3 33.5 59.9 28.5C56.9 18.2 57.7 5 57.7 5C57.7 5 45.4 12.8 38.2 13.5C28 14.5 22.6 10.2 22.6 10.2L19.9 14.3C20 14.5 28.6 19.1 37.4 17.8Z" fill="black" stroke="black" stroke-width="3"/>
<path d="M65 60.5C65 60.5 68.1 53.3 72.4 50.4C81.4 44.3 94.3 40.7 94.3 40.7C94.3 40.7 82.8 31.8 79.8 25.3C75.6 16.2 77.9 9.7 77.9 9.7L73.1 8.5C73.1 8.5 71.2 18.1 75.3 25.9C78.7 32.3 87.8 39.1 87.8 39.1C87.8 39.1 75 42.9 69.6 47.8C61.3 55.4 60.2 59.3 60.2 59.3L65 60.5Z" fill="black" stroke="black" stroke-width="3"/>
</svg>
